X: 4
T: 4. Es ist das Heil uns kommen her
N: Derived from chor004.krn
C: Johann Sebastian Bach
%%abc-version 2.0
%%abcx-abcm2ps-target-version 5.9.1 (29 Sep 2008)
%%abc-creator hum2abc beta
%%abcx-conversion-date 2019/03/11 17:28:17
%%abc-edited-by Craig Stuart Sapp
%%humdrum-veritas 421899681
%%humdrum-veritas-data 1007556281
%%
%%barnumbers 0
L: 1/4
M: C
%%staves [1 2 3 4]
V: 1 clef=treble
V: 2 clef=treble
V: 3 clef=treble-8
V: 4 clef=bass
K: E
[V:1] B [I:setbarnb 1]| 
[V:2] G | 
[V:3] e | 
[V:4] E, | 
[V:1] BBB=d | 
[V:2] F/G/AGF | 
[V:3] fe/d/eA/B/ | 
[V:4] D,B,,E,F,/G,/ | 
[V:1] cB!fermata!AB | 
[V:2] E/AG/!fermata!EF | 
[V:3] c//=d//e=d/!fermata!cB | 
[V:4] A,E,!fermata!A,,D, | 
[V:1] GE/F/G^A | 
[V:2] EE/D/EC | 
[V:3] B3/A/GF | 
[V:4] E,/F,/G,C,F,/E,/ | 
[V:1] Bc!fermata!B :|]  
[V:2] F/E//D//E!fermata!D :|]  
[V:3] F/B^A/!fermata!F :|]  
[V:4] D,/C,//B,,//F,!fermata!B,, :|]  
[V:1] B [I:setbarnb 5]| 
[V:2] E/F/ | 
[V:3] G | 
[V:4] E, | 
[V:1] edcd | 
[V:2] G/^A/BAB | 
[V:3] cFff | 
[V:4] C,D,/E,/F,B, | 
[V:1] e/d/c!fermata!BB | 
[V:2] BF!fermata!FG | 
[V:3] B^A!fermata!de | 
[V:4] G,/E,/F,!fermata!B,,E, | 
[V:1] eBcG/A/ | 
[V:2] E/F/GAE/F/ | 
[V:3] Beec | 
[V:4] G,E,=A,/B,/C | 
[V:1] BA!fermata!GG | 
[V:2] GF!fermata!^E=E | 
[V:3] =dc!fermata!cB- | 
[V:4] ^E,F,!fermata!C,=E, | 
[V:1] FAGF | 
[V:2] DCB,B, | 
[V:3] Beed/B/ | 
[V:4] B,,C,/D,/E,B,, | 
[V:1] CD!fermata!E |]  
[V:2] CB,!fermata!B, |]  
[V:3] F2!fermata!G |]  
[V:4] ^A,,B,,!fermata!E,, |]  



